dist/svg/baby-duo-tone.svg

<svg xmlns="http://www.w3.org/2000/svg" viewBox="0 0 24 24"><path d="M11.6 3.264c-2.74.182-5.034 1.531-6.611 3.887-.374.558-1.069 2.003-1.069 2.222 0 .034-.094.115-.21.182a3.04 3.04 0 0 0-1.188 1.265c-.205.427-.261.678-.261 1.18s.056.753.261 1.18c.242.504.691.983 1.188 1.267.116.067.21.148.21.181 0 .104.317.852.583 1.374a8.9 8.9 0 0 0 3.103 3.45 8.14 8.14 0 0 0 8.788 0 8.9 8.9 0 0 0 3.103-3.45c.257-.505.583-1.276.583-1.379 0-.03.095-.109.21-.176a3 3 0 0 0 1.338-1.627c.091-.277.105-.388.105-.82s-.014-.543-.105-.82a3 3 0 0 0-1.338-1.625c-.115-.067-.21-.146-.21-.177 0-.104-.325-.873-.583-1.38-.876-1.724-2.282-3.118-3.957-3.922a7.9 7.9 0 0 0-2.4-.736c-.439-.062-1.195-.099-1.54-.076m.92 1.609c.239.125.487.37.604.6.092.18.096.22.096 1.027 0 .816-.003.846-.099 1.035-.13.253-.467.559-.707.641a1.4 1.4 0 0 1-.828 0c-.237-.081-.578-.388-.698-.629a1.7 1.7 0 0 1-.124-.476c-.049-.434-.18-.638-.493-.769-.377-.158-.803.03-.969.427-.185.442.085 1.414.555 2.001.497.62 1.35 1.03 2.143 1.03.794 0 1.652-.413 2.141-1.03.26-.328.485-.81.562-1.202.052-.265.061-.5.046-1.18-.01-.466-.032-.89-.049-.941-.029-.089-.014-.085.296.071 1.686.848 3.044 2.473 3.664 4.386.206.635.23.665.744.923.342.172.635.479.75.786.247.661-.056 1.274-.835 1.688-.424.225-.466.281-.662.884-.389 1.2-1.139 2.399-2.01 3.209-1.347 1.255-2.9 1.885-4.647 1.885-1.85 0-3.506-.716-4.854-2.096a7.7 7.7 0 0 1-1.806-3.007c-.193-.594-.236-.651-.659-.875-.602-.32-.921-.757-.921-1.261 0-.474.336-.962.836-1.213.513-.258.538-.288.742-.917.627-1.935 1.98-3.549 3.691-4.403.957-.478 1.912-.71 2.851-.695.394.007.486.022.64.101M8.7 10.316a.73.73 0 0 0-.398.413c-.164.393.059.853.482.992.43.142.946-.162 1.004-.592.033-.246-.018-.434-.16-.596-.243-.277-.611-.364-.928-.217m6 0a.73.73 0 0 0-.398.413c-.164.393.059.853.482.992.43.142.946-.162 1.004-.592.033-.246-.018-.434-.16-.596-.243-.277-.611-.364-.928-.217m-4.954 3.982c-.283.101-.503.403-.505.693a.9.9 0 0 0 .211.524c.193.21 1.089.542 1.747.647.415.067 1.27.058 1.701-.018.629-.11 1.465-.43 1.648-.629a.9.9 0 0 0 .211-.524c-.002-.303-.253-.627-.55-.709-.231-.064-.3-.053-.722.117-.602.243-.866.295-1.487.295s-.885-.052-1.487-.295c-.426-.171-.53-.185-.767-.101"/></svg>

<svg fill="none" xmlns="http://www.w3.org/2000/svg" viewBox="0 0 24 24"><path d="M11.600 3.264 C 8.860 3.446,6.566 4.795,4.989 7.151 C 4.615 7.709,3.920 9.154,3.920 9.373 C 3.920 9.407,3.826 9.488,3.710 9.555 C 3.207 9.844,2.764 10.316,2.522 10.820 C 2.317 11.247,2.261 11.498,2.261 12.000 C 2.261 12.502,2.317 12.753,2.522 13.180 C 2.764 13.684,3.213 14.163,3.710 14.447 C 3.826 14.514,3.920 14.595,3.920 14.628 C 3.920 14.732,4.237 15.480,4.503 16.002 C 5.219 17.412,6.297 18.610,7.606 19.452 C 10.273 21.169,13.727 21.169,16.394 19.452 C 17.703 18.610,18.781 17.412,19.497 16.002 C 19.754 15.497,20.080 14.726,20.080 14.623 C 20.080 14.593,20.175 14.514,20.290 14.447 C 20.910 14.093,21.409 13.486,21.628 12.820 C 21.719 12.543,21.733 12.432,21.733 12.000 C 21.733 11.568,21.719 11.457,21.628 11.180 C 21.409 10.513,20.916 9.915,20.290 9.555 C 20.175 9.488,20.080 9.409,20.080 9.378 C 20.080 9.274,19.755 8.505,19.497 7.998 C 18.621 6.274,17.215 4.880,15.540 4.076 C 14.735 3.689,13.979 3.457,13.140 3.340 C 12.701 3.278,11.945 3.241,11.600 3.264 M12.520 4.873 C 12.759 4.998,13.007 5.243,13.124 5.473 C 13.216 5.653,13.220 5.693,13.220 6.500 C 13.220 7.316,13.217 7.346,13.121 7.535 C 12.991 7.788,12.654 8.094,12.414 8.176 C 12.173 8.258,11.827 8.258,11.586 8.176 C 11.349 8.095,11.008 7.788,10.888 7.547 C 10.836 7.444,10.782 7.236,10.764 7.071 C 10.715 6.637,10.584 6.433,10.271 6.302 C 9.894 6.144,9.468 6.332,9.302 6.729 C 9.117 7.171,9.387 8.143,9.857 8.730 C 10.354 9.350,11.207 9.760,12.000 9.760 C 12.794 9.760,13.652 9.347,14.141 8.730 C 14.401 8.402,14.626 7.920,14.703 7.528 C 14.755 7.263,14.764 7.028,14.749 6.348 C 14.739 5.882,14.717 5.458,14.700 5.407 C 14.671 5.318,14.686 5.322,14.996 5.478 C 16.682 6.326,18.040 7.951,18.660 9.864 C 18.866 10.499,18.890 10.529,19.404 10.787 C 19.746 10.959,20.039 11.266,20.154 11.573 C 20.401 12.234,20.098 12.847,19.319 13.261 C 18.895 13.486,18.853 13.542,18.657 14.145 C 18.268 15.345,17.518 16.544,16.647 17.354 C 15.300 18.609,13.747 19.239,12.000 19.239 C 10.150 19.239,8.494 18.523,7.146 17.143 C 6.330 16.307,5.707 15.270,5.340 14.136 C 5.147 13.542,5.104 13.485,4.681 13.261 C 4.079 12.941,3.760 12.504,3.760 12.000 C 3.760 11.526,4.096 11.038,4.596 10.787 C 5.109 10.529,5.134 10.499,5.338 9.870 C 5.965 7.935,7.318 6.321,9.029 5.467 C 9.986 4.989,10.941 4.757,11.880 4.772 C 12.274 4.779,12.366 4.794,12.520 4.873 M8.700 10.316 C 8.506 10.405,8.384 10.532,8.302 10.729 C 8.138 11.122,8.361 11.582,8.784 11.721 C 9.214 11.863,9.730 11.559,9.788 11.129 C 9.821 10.883,9.770 10.695,9.628 10.533 C 9.385 10.256,9.017 10.169,8.700 10.316 M14.700 10.316 C 14.506 10.405,14.384 10.532,14.302 10.729 C 14.138 11.122,14.361 11.582,14.784 11.721 C 15.214 11.863,15.730 11.559,15.788 11.129 C 15.821 10.883,15.770 10.695,15.628 10.533 C 15.385 10.256,15.017 10.169,14.700 10.316 M9.746 14.298 C 9.463 14.399,9.243 14.701,9.241 14.991 C 9.240 15.153,9.334 15.387,9.452 15.515 C 9.645 15.725,10.541 16.057,11.199 16.162 C 11.614 16.229,12.469 16.220,12.900 16.144 C 13.529 16.034,14.365 15.714,14.548 15.515 C 14.666 15.387,14.760 15.152,14.759 14.991 C 14.757 14.688,14.506 14.364,14.209 14.282 C 13.978 14.218,13.909 14.229,13.487 14.399 C 12.885 14.642,12.621 14.694,12.000 14.694 C 11.379 14.694,11.115 14.642,10.513 14.399 C 10.087 14.228,9.983 14.214,9.746 14.298 " stroke="none" fill-rule="evenodd"/></svg>
